X:1
T:Title
L:1/8
M:4/4
K:Ab
V:1 treble nm="Grand Piano"
V:1
 z4 z[Q:1/4=100] C2 C | F2 F2 E2 DE | D2 C2- C F2 F | A2 A2 GF=EF | G4- G c2 B | AG F2- F A2 F | %6
 F2 =E2- E B2 A | G2 F2 =E2 F_G | G4- G F2 G | AB c2- c B2 c | d2 d2- d d2 c | B2 B2 A2 B_c | %12
 c4- c c2 B | AG F2- F B2 B | G2 E2- E A2 G | F2 F2 =E=D E2 | F6 z2 |] %17

